packages/dnb-ui-lib/assets/icons/car_1_medium.svg

<svg width="24" height="24" viewBox="0 0 24 24" fill="none" xmlns="http://www.w3.org/2000/svg">
<path d="M2.25 19.749C2.25 20.1468 2.40804 20.5284 2.68934 20.8097C2.97064 21.091 3.35218 21.249 3.75 21.249C4.14782 21.249 4.52936 21.091 4.81066 20.8097C5.09196 20.5284 5.25 20.1468 5.25 19.749V18.2498M2.25 19.749C2.25 19.3512 2.25 18.25 2.25 18.25M2.25 19.749V18.25M21.75 18.249C22.1478 18.249 22.5294 18.091 22.8107 17.8097C23.092 17.5284 23.25 17.1468 23.25 16.749V15.249M21.75 18.249L18.75 18.2492M21.75 18.249V19.749C21.75 20.1468 21.592 20.5284 21.3107 20.8097C21.0294 21.091 20.6478 21.249 20.25 21.249C19.8522 21.249 19.4706 21.091 19.1893 20.8097C18.908 20.5284 18.75 20.1468 18.75 19.749V18.2492M3.75 9.25L20.25 9.255M3.75 9.25L2.25 7.75H0.75M3.75 9.25L1.28 11.72C1.12561 11.8745 1.002 12.054 0.913115 12.249M3.75 9.25L5.473 4.655C5.62783 4.24242 5.90482 3.88687 6.267 3.63583C6.62918 3.38478 7.05932 3.25019 7.5 3.25H16.5C16.9407 3.25019 17.3708 3.38478 17.733 3.63583C18.0952 3.88687 18.3722 4.24242 18.527 4.655L20.25 9.255M2.25 18.25C1.85218 18.25 1.47064 18.092 1.18934 17.8107C0.908035 17.5294 0.75 17.1478 0.75 16.75V15.249M2.25 18.25L5.25 18.2498M20.25 9.255L22.72 11.721C22.8741 11.8752 22.9976 12.0544 23.0864 12.249M20.25 9.255L21.75 7.75H23.25M10.125 15.249L8.96701 13.4C8.89562 13.2866 8.85589 13.1561 8.85194 13.0221C8.848 12.8881 8.87998 12.7556 8.94457 12.6381C9.00916 12.5207 9.104 12.4226 9.21926 12.3542C9.33451 12.2858 9.46598 12.2495 9.60001 12.249H14.4C14.5338 12.2493 14.6652 12.2853 14.7804 12.3533C14.8956 12.4214 14.9906 12.519 15.0554 12.6361C15.1203 12.7531 15.1527 12.8854 15.1493 13.0192C15.1459 13.153 15.1068 13.2834 15.036 13.397L13.878 15.249M4.036 12.249C4.16383 12.2492 4.2895 12.282 4.40111 12.3444C4.51271 12.4067 4.60655 12.4965 4.67375 12.6053C4.74094 12.714 4.77926 12.8381 4.78508 12.9658C4.7909 13.0935 4.76402 13.2206 4.707 13.335L4.579 13.591C4.33012 14.0886 3.94776 14.5072 3.47467 14.8C3.00157 15.0928 2.45637 15.2482 1.9 15.249H0.75M4.036 12.249C2.99504 12.249 1.95408 12.249 0.913115 12.249M4.036 12.249H0.913115M0.913115 12.249C0.806653 12.4826 0.75002 12.7384 0.75 13V15.249M23.0864 12.249C23.193 12.4826 23.2498 12.7383 23.25 13V15.249M23.0864 12.249H19.964C19.8362 12.2492 19.7105 12.282 19.5989 12.3444C19.4873 12.4067 19.3934 12.4965 19.3263 12.6053C19.2591 12.714 19.2207 12.8381 19.2149 12.9658C19.2091 13.0935 19.236 13.2206 19.293 13.335L19.421 13.591C19.6699 14.0886 20.0522 14.5072 20.5253 14.8C20.9984 15.0928 21.5436 15.2482 22.1 15.249H23.25M5.25 18.2498L18.75 18.2492" stroke="black" stroke-width="1.5" stroke-linecap="round" stroke-linejoin="round"/>
</svg>

<svg width="24" height="24" viewBox="0 0 24 24" fill="none" xmlns="http://www.w3.org/2000/svg"><path d="M2.25 19.749a1.5 1.5 0 003 0v-1.5m-3 1.5V18.25m0 1.499V18.25m19.5-.001a1.5 1.5 0 001.5-1.5v-1.5m-1.5 3h-3m3 0v1.5a1.5 1.5 0 11-3 0v-1.5m-15-8.999l16.5.005M3.75 9.25l-1.5-1.5H.75m3 1.5l-2.47 2.47a1.81 1.81 0 00-.367.529M3.75 9.25l1.723-4.595A2.166 2.166 0 017.5 3.25h9a2.166 2.166 0 012.027 1.405l1.723 4.6m-18 8.995a1.5 1.5 0 01-1.5-1.5v-1.501m1.5 3.001h3m15-8.995l2.47 2.466c.154.154.278.333.366.528M20.25 9.255l1.5-1.505h1.5m-13.125 7.499L8.967 13.4a.75.75 0 01.633-1.151h4.8a.752.752 0 01.636 1.148l-1.158 1.852m-9.842-3a.75.75 0 01.671 1.086l-.128.256A3 3 0 011.9 15.249H.75m3.286-3H.913m3.123 0H.913m0 0c-.106.234-.163.49-.163.751v2.249m22.336-3c.107.234.164.49.164.751v2.249m-.164-3h-3.122a.75.75 0 00-.671 1.086l.128.256a3 3 0 002.679 1.658h1.15m-18 3h13.5" stroke="#000" stroke-width="1.5" stroke-linecap="round" stroke-linejoin="round"/></svg>
